X:134
T:Rochester Schottishe
M:2/4
L:1/16
U:R=!breath!
K:D
F2AB A2f2|F2AB A2a2|ggff eedd|ccBB AAGG|F2AB A2Rf2|
F2AB A2Ra2|ggff ee (3(ABc)|d2f2d2z2::e2e2 a4|c2c2 Re4|Beee Aeee|
Beee Aeee|e2e2 RA4|A2A2 e4|ggff ee (3(ABc)|d2d2d2z2::F2A2 F2A2|
f2d2A2 (3(ABA)|G2e2 G2Re2|FABc d2d2|F2A2 F2A2|B2BB RB4|A2AA A2Bc|d2d2d2z2:|
P:2nd Fife - Harmony by A. Terreri
L:1/16
D2A2 F2A2|D2A2 F2RA2|eedd ccBB|AAGG FFDD|D2A2 F2RA2|
D2A2 F2RA2|eedd cc a2|f2f2f2z2::c2c2 c4|A2A2 c4|dggg cggg|
dggg cggg|c2c2 Rc4|c2c2 c4|ccdd cc a2|f2f2f2z2::D2F2 D2F2|
A2F2F2 z2|A2g2 A2g2|f4 Rf4|D2=c2 D2c2|G2GG RG4|G2GG G2GG|F2F2F2z2:|

